X:1
T:Praise God the Father
T:Praise God the Father
T:Alexander Zarnock
T:Richard W. Adams, 2019
T:Public Domain Courtesy of the Cyber Hymnal™
C:Alexander Zarnock
Z:Public Domain
Z:Courtesy of the Cyber Hymnal™
%%score ( 1 2 ) 3
L:1/8
Q:1/4=95
M:3/4
K:G
V:1 treble 
V:2 treble 
V:3 bass 
V:1
 D2 | [DG]>[DG] [DG]2 [FA]2 | [GB]>[GB] [GB]3 [GB] | [FA]>[GB] [Ac]2 [DF]2 | [DA]>[DG] [DG]2 D2 | %5
w: 1.~Praise|God the Fa- ther,|God the Son, And|Ho- ly Spir- it,|Three in One; Ma-|
w: 2.~To|God our king are|prais- es due, To|God our rock, Re-|deem- er true; With|
w: 3.~With|signs and won- ders,|weal and woe, He|makes the world His|pow- er know; His|
 [DG]>[DG] [DG]2 [FA]2 | [GB]>[GB] [GB]3 [GB] | [FA]>[GB] [Ac]2 [DF]2 | [DA]>[DG] [DG]2 z [Gd] | %9
w: jes- tic, ho- ly,|awe- some He, Who|rules in light and|pur- i- ty; No|
w: might- y hand and|out- stretched arm, He|saves His Church from|all al- arm; He|
w: king- dom spreads: re-|treats the foe, While|saints to heav’n- ly|man- sions go; Thro’|
 [Gd]>[GB] [^Ge]3 [Gd] | [Bd]>[Ac] [Ac]3 [Ac] | [Ac]>A [Fd]3 [Fc] | [Ac]>[GB] [GB]2 D2 | %13
w: oth- er voice can|calm the sea, No|oth- er hand make|de- mons flee, No|
w: is a Lord of|won- drous deeds, With|fin- est wheat His|pe- ople feeds; When|
w: cen- tu- ries His|plans un- furl, Un-|lock- ing Hea- ven’s|gates of pearl; To|
 [DG]>[DG] [DG]2 [FA]2 | [GB]>[GB] [GB]3 [GB] | [EA]>[EB] [Ec]2 [DF]2 | [DA]>[DG] [DG]2 |] %17
w: oth- er love so|full and free, No|oth- er name shall|bend our knee.|
w: wa- ters part and|then come down, His|en- e- mies are|no- where found.|
w: God the Fa- ther,|Spir- it, Son, Be|praise while end- less|ag- es run.|
V:2
 D2 | x6 | x6 | x6 | x4 D2 | x6 | x6 | x6 | x6 | x6 | x6 | x6 | x4 D2 | x6 | x6 | x6 | x4 |] %17
V:3
 [G,B,]2 | [G,B,]>[G,B,] [G,B,]2 [D,D]2 | [G,D]>[G,D] [G,D]3 [G,D] | [D,D]>[D,D] [D,D]2 [D,A,]2 | %4
 [G,C]>[G,B,] [G,B,]2 [G,B,]2 | [G,B,]>[G,B,] [G,B,]2 [D,D]2 | [G,D]>[G,D] [G,D]3 [G,D] | %7
 [D,D]>[D,D] [D,D]2 [D,A,]2 | [G,C]>[G,B,] [G,B,]2 z [G,B,] | [G,B,]>[G,B,] [E,B,]3 [E,E] | %10
 [A,E]>[A,E] [A,E]3 [G,E] | [F,D]>[F,D] [D,D]3 [D,D] | [G,D]>[G,D] [G,D]2 [G,B,]2 | %13
 [G,B,]>[G,B,] [G,B,]2 [D,D]2 | [G,D]>[G,D] [G,D]3 [G,D] | [C,A,]>[B,,^G,] [A,,A,]2 [D,A,]2 | %16
 [G,C]>[G,B,] [G,B,]2 |] %17

